X: 445
T: Bumblebee in a Jug
B: jims roots
M:4/4
L:1/8
R: reel
Q: 1/4=100
K:C
V:1 
|: "C"e3e e2e2| eged cBAG | "Am"A2AB AGED | EGAB ABcB |
   "C"cde2 e2-e2 | eged cBAG | "F"A2AB AGED | "G"EGAB "C"c2-c2 :|
|: "C"C3-C GAcB | "F"AFAd "G"B2G2 |  "C"c3d edcB | "D"AFAd "G"BAGE |
   "C"C3-C EGcB | "F"AFAd BGAB |  "C"cBc2 edcB | "G"AcBd "C"c2-c2 :|
|: "C"E3F EDEF | EDEF EDCB, | "Am"A,G,A,G, A,G,A,G, | A,G,A,B, CDED |
   "C"CDED EDED | EDEG EDCB, | "F"A,2A,G, A,CA,G, | "G"A,G,A,B,"C"C2-C2 :|
% abcbook-tune_id 6298c245806dee4e911a8f51


% abcbook-boost 0
% abcbook-tablature 
% abcbook-transpose 
% abcbook-lastupdated 1654178373566
% abcbook-soundfonts 
% abcbook-repeats 1


